Amon/img/excursions/arrow.svg

<svg width="24" height="22" viewBox="0 0 24 22" fill="none" xmlns="http://www.w3.org/2000/svg">
<path d="M15.2755 20.8472L23.4391 12.3526C24.187 11.5697 24.187 10.2991 23.4391 9.51889L15.2755 1.01924C14.5214 0.236414 13.3008 0.240343 12.5467 1.01924C11.8002 1.80338 11.8002 3.06879 12.5467 3.85293L17.3226 8.82146L2.00215 8.82146C0.895411 8.82146 0 9.75904 0 10.9195C0 12.0787 0.895411 13.0176 2.00215 13.0176L17.3515 13.0176L12.5467 18.0123C11.8002 18.7951 11.8002 20.0618 12.5467 20.8447C13.2996 21.6288 14.5201 21.6301 15.2755 20.8473V20.8472Z" fill="white"/>
</svg>

<svg width="24" height="22" fill="none" xmlns="http://www.w3.org/2000/svg"><path d="M15.275 20.847l8.164-8.494a2.07 2.07 0 000-2.834l-8.164-8.5a1.882 1.882 0 00-2.728 0 2.073 2.073 0 000 2.834l4.776 4.968H2.003C.894 8.821 0 9.76 0 10.92s.895 2.099 2.002 2.099h15.35l-4.805 4.994a2.071 2.071 0 000 2.833 1.878 1.878 0 002.728.002z" fill="#fff"/></svg>
